X: 17830
T: Hope, The
R: jig
M: 6/8
K: Dmajor
~F3 ~A,3|B,GF ~E3|FDA, B,2 A,|B,GF EDE|
FdA ~B3|AFD EDE|FdA BdB|1 AFD ~E3:|2 AFA Bce||
dbe ~f3|faf edc|Bdb agf|efa ~g3|
fab afe|fed BAF|B/c/dB AFA|1 B2 A Bce:|2 BAF ~E3||

